img/svg-icons/info.svg

<svg xmlns="http://www.w3.org/2000/svg" id="info" viewBox="0 0 52 52"><path d="M30 11.6h-1.6a.43.43 0 0 0-.4.4l-.4 2a.3.3 0 0 0 .3.4v.1h1.6a.37.37 0 0 0 .4-.4l.4-2.1a.3.3 0 0 0-.3-.4zM28.4 19.5h-1.3a.43.43 0 0 0-.4.4l-3.1 18a.3.3 0 0 0 .3.4h1.2a.43.43 0 0 0 .4-.4l3.2-18a.3.3 0 0 0-.3-.4z"/><path d="M26 0a26 26 0 1 0 26 26A26.08 26.08 0 0 0 26 0zm-.1 50.2A24.25 24.25 0 1 1 50.2 26a24.22 24.22 0 0 1-24.3 24.2z"/></svg>

<svg id="info" xmlns="http://www.w3.org/2000/svg" width="52" height="52" viewBox="0 0 52 52"><title>info</title><path d="M30,11.6H28.4a0.43,0.43,0,0,0-.4.4l-0.4,2a0.3,0.3,0,0,0,.3.4v0.1h1.6a0.37,0.37,0,0,0,.4-0.4L30.3,12A0.3,0.3,0,0,0,30,11.6Z" transform="translate(0)"  /><path d="M28.4,19.5H27.1a0.43,0.43,0,0,0-.4.4l-3.1,18a0.3,0.3,0,0,0,.3.4h1.2a0.43,0.43,0,0,0,.4-0.4l3.2-18A0.3,0.3,0,0,0,28.4,19.5Z" transform="translate(0)"  /><path d="M26,0A26,26,0,1,0,52,26,26.08,26.08,0,0,0,26,0ZM25.9,50.2A24.25,24.25,0,1,1,50.2,26,24.22,24.22,0,0,1,25.9,50.2Z" transform="translate(0)"  /></svg>
